X: 1664
T: Sana Ey Cânımın Cânı Efendim
C: Rahmi Bey
O: Turkey
F: http://compmusic.upf.edu/node/140
N: kurdilihicazkar--sarki--kapali_curcuna--sana_ey--rahmi_bey
N: makam= kurdilihicazkar
N: form= sarki
N: usul= kapali_curcuna = 10/8
M: 10/8
L: 1/16
K: C _B _e _A 
Q: 1/4=204
%%MIDI tuningsystem comma53
g4 a2g2 f2e2 d2e4z2  | d2e2 f2g2 a2f2 a2g4z2  | \
w:  ARANAĞME  |   | 
g4 c'2b2 a2g2 f2e2 d2c2  | 
w:   | 
d2_2/4e2 f2f2 e2_3/4e2 d2d6  | c4 d2_2/4e4f4g4z2  | \
w:   |   | 
f2g2 a2g2 f2e2 d2c6  | 
w:   | 
B2c2 d2e2 f2d2 c2B2 A2G2  | G4 e2d2 c2B2 A2G3def  | \
w:   |   | 
g4 a2g2 f2e2 d2e4z2  | 
w:  ARANAĞME  | 
d2e2 f2g2 a2f2 a2g4z2  | g4 c'2b2 a2g2 f2e2 d2c2  | \
w:   |   | 
d2_2/4e2 f2f2 e2_3/4e2 d2d6  | 
w:   | 
c4 d2_2/4e4f4g4z2  | f2g2 a2g2 f2e2 d2c6  | \
w:   |   | 
B2c2 d2e2 f2d2 c2B2 A2G2  | 
w:   | 
G4 e2d2 c2B2 A2G3def  | g4 f2g4g8f2  | \
w:   |  *  Sa na  ey   | 
=a4 g2g2 f2f2 _2/4e2e4d2  | 
w:  câ *  nı *  mın   | 
d8-d2g2 f2_7/8e2 d2c2  | {c}g4 f2_7/8e2 d2d8-d2  | \
w:  câ nı   |  *  e fen *  *  dim    | 
z4 e2d2 c2B2 A2G6  | z4 g2=a4a8g2  | 
w:  SAZ  |  Sa na  ey   | 
{g}b4 =a2a2 g2g2 f2_3/4e3dc2  | c4 d2_2/4e2 d2=a4g4f2  | \
w:  *  câ *  nı *  mın   |  *  câ *  *  nı   | 
{f}g4 f2_7/8e2 d2d8-d2  | 
w:  *  e fen *  *  dim    | 
z4 e2d2 c2_1/4B2 c2.d2 ._2/4e2.f2  | \
w:  SAZ  | 
g4 c2d2 _2/4e2f4g6  | d4 e2d2 c2B2 A2A4G2  | 
w:  *  Kı rıl *  dım  küs  |  tüm  in *  *  cin  | 
G6g4{a}g2 f2e2 d2c2  | c2B2 d2c2 d2B2 _7/8A2c2 _A2G2  | \
w:  dim   |  gü *  cen  | 
G3A B2c2 d2_2/4e2 f2g6  | 
w:  dim   SAZ  | 
g4 c2d2 _2/4e2f4g6  | d4 e2d2 c2B2 A2A4G2  | \
w:  *  Kı rıl *  dım  küs  |  tüm  in *  *  cin  | 
G6g4{a}g2 f2e2 d2c2  | 
w:  dim   | 
c2B2 d2c2 d2B2 _7/8A2c2 _A2G2  | G4 e2d2 c2B2 d2c6  | \
w:  gü *  cen  |  dim   SAZ  | 
c4 B2c4c2 {e}dc{d}c4B2  | 
w:  *  Be nim  nev  | 
B4 _7/8A2A2 G2G8-G2  | B6c4c2 B2_3/4A2 GFG2  | \
w:  res  *  ni *  hâl_  |  i  *  serv   | 
_7/8A4 B4 c2c2 B2A2 G2F2  | 
w:  bü len *  dim    | 
F4 F2G4G2 F2d4c2  | B4 _3/4A2A2 G2G8-G2  | \
w:  *  Be nim  nev  |  res  *  ni *  hâl_  | 
d2c2 _1/4B2c2 d2d2 _2/4e2f2 e2d2  | 
w:  i  *  *  *  *  serv   | 
g4 f2_7/8e2 d2{e}d8-d2  | z4 e2d2 c2_1/4B2 c2.d2 ._2/4e2.f2  | \
w:  bü len *  *  *  dim    |  SAZ  | 
g4 c2d2 _2/4e2f4g6  | 
w:  *  Kı rıl *  dım  küs  | 
d4 e2d2 c2B2 A2A4G2  | G6g4{a}g2 f2e2 d2c2  | \
w:  tüm  in *  *  cin  |  dim   | 
c2B2 d2c2 d2B2 _7/8A2c2 _A2G2  | 
w:  gü *  cen  | 
G3A B2c2 d2_2/4e2 f2g6  | g4 c2d2 _2/4e2f4g6  | \
w:  dim   SAZ  |  *  Kı rıl *  dım  küs  | 
d4 e2d2 c2B2 A2A4G2  | 
w:  tüm  in *  *  cin  | 
G6g4{a}g2 f2e2 d2c2  | c2B2 d2c2 d2B2 _7/8A2c2 _A2G2  | \
w:  dim   |  gü *  cen  | 
G4 |
w:  dim    | 


